TH1/tut4_statsEditing.svg

<svg xmlns="http://www.w3.org/2000/svg" viewBox="0 0 1200 800" preserveAspectRatio="none" width="1200" height="800">
 <path d="M0,0H1200V800H0Z" style="fill: white;"></path>
 <g>
  <g transform="translate(120,80)">
   <path d="M0,0H960V640H0Z" style="fill: white; stroke: black; stroke-width: 1;"></path>
   <svg x="0" y="0" overflow="hidden" width="960" height="640" viewBox="0 0 960 640">
    <g>
     <path d="M0,626h10v14h19v-29h9v29h10v-22h10v-14h9v14h10v15h9v-29h10v7h10v-14h9v21h10v-14h19v-21h10v-43h19v-8h9v43h10v-86h10v72h9v-36h10v-57h38v-22h10v-71h9v36h10v-36h10v-29h9v7h10v-14h9v-29h10v-79h10v36h9v36h10v-36h9v-107h10v93h19v-93h10v-15h9v-57h10v-22h10v144h9v-86h10v7h9v-101h10v180h10v-65h9v-79h10v115h9v-7h10v-14h10v-15h9v-86h10v158h9v7h10v29h10v7h9v-100h10v222h9v-165h10v64h10v65h9v-29h10v79h9v15h10v-22h10v50h9v15h10v14h9v36h10v-58h10v15h9v21h10v50h19v15h10v28h9v-14h10v36h9v-36h10v14h10v8h19v28h9v-14h10v29h10v-8h9v-14h10v14h9v8h10v7h10v7h9v-7h10v7h9v-22h10" style="stroke-linejoin: miter; stroke: #00009a; stroke-width: 1; fill: none;"></path>
    </g>
   </svg>
   <g>
    <g transform="translate(0,640)">
     <path d="M0,0h960M0,-24v24m32,-12v12m32,-12v12m32,-12v12m32,-12v12m32,-24v24m32,-12v12m32,-12v12m32,-12v12m32,-12v12m32,-24v24m32,-12v12m32,-12v12m32,-12v12m32,-12v12m32,-24v24m32,-12v12m32,-12v12m32,-12v12m32,-12v12m32,-24v24m32,-12v12m32,-12v12m32,-12v12m32,-12v12m32,-24v24m32,-12v12m32,-12v12m32,-12v12m32,-12v12m32,-24v24" style="stroke: black; stroke-width: 1;"></path>
     <g font-family="Arial" font-size="28" space="preserve" fill="black" text-anchor="middle">
      <text dy=".8em" transform="translate(0,6)">
       -3
      </text>
      <text dy=".8em" transform="translate(160,6)">
       -2
      </text>
      <text dy=".8em" transform="translate(320,6)">
       -1
      </text>
      <text dy=".8em" transform="translate(480,6)">
       0
      </text>
      <text dy=".8em" transform="translate(640,6)">
       1
      </text>
      <text dy=".8em" transform="translate(800,6)">
       2
      </text>
      <text dy=".8em" transform="translate(960,6)">
       3
      </text>
     </g>
    </g>
    <g>
     <path d="M0,0v640M36,640h-36m18,-14h-18m18,-15h-18m18,-14h-18m18,-14h-18m36,-15h-36m18,-14h-18m18,-14h-18m18,-15h-18m18,-14h-18m36,-14h-36m18,-15h-18m18,-14h-18m18,-14h-18m18,-15h-18m36,-14h-36m18,-14h-18m18,-15h-18m18,-14h-18m18,-14h-18m36,-15h-36m18,-14h-18m18,-15h-18m18,-14h-18m18,-14h-18m36,-15h-36m18,-14h-18m18,-14h-18m18,-15h-18m18,-14h-18m36,-14h-36m18,-15h-18m18,-14h-18m18,-14h-18m18,-15h-18m36,-14h-36m18,-14h-18m18,-15h-18m18,-14h-18m18,-14h-18m36,-15h-36m18,-14h-18m18,-14h-18m18,-15h-18m18,-14h-18" style="stroke: black; stroke-width: 1;"></path>
     <g font-family="Arial" font-size="28" space="preserve" fill="black" text-anchor="end">
      <text dy=".4em" transform="translate(-4,640)">
       0
      </text>
      <text dy=".4em" transform="translate(-4,568)">
       10
      </text>
      <text dy=".4em" transform="translate(-4,497)">
       20
      </text>
      <text dy=".4em" transform="translate(-4,425)">
       30
      </text>
      <text dy=".4em" transform="translate(-4,353)">
       40
      </text>
      <text dy=".4em" transform="translate(-4,281)">
       50
      </text>
      <text dy=".4em" transform="translate(-4,210)">
       60
      </text>
      <text dy=".4em" transform="translate(-4,138)">
       70
      </text>
      <text dy=".4em" transform="translate(-4,66)">
       80
      </text>
     </g>
    </g>
   </g>
  </g>
  <g transform="translate(551,4)" font-family="Arial" font-size="36" space="preserve">
   <text fill="black" text-anchor="middle" dy=".4em" transform="translate(49,22)">
    test
   </text>
  </g>
 </g>
</svg>

<svg xmlns="http://www.w3.org/2000/svg" viewBox="0 0 1200 800" preserveAspectRatio="none" width="1200" height="800">
 <path d="M0,0H1200V800H0Z" style="fill: white;"></path>
 <g>
  <g transform="translate(120,80)">
   <path d="M0,0H960V640H0Z" style="fill: white; stroke: black; stroke-width: 1;"></path>
   <svg x="0" y="0" overflow="hidden" width="960" height="640" viewBox="0 0 960 640">
    <g>
     <path d="M0,626h10v14h19v-29h9v29h10v-22h10v-14h9v14h10v15h9v-29h10v7h10v-14h9v21h10v-14h19v-21h10v-43h19v-8h9v43h10v-86h10v72h9v-36h10v-57h38v-22h10v-71h9v36h10v-36h10v-29h9v7h10v-14h9v-29h10v-79h10v36h9v36h10v-36h9v-107h10v93h19v-93h10v-15h9v-57h10v-22h10v144h9v-86h10v7h9v-101h10v180h10v-65h9v-79h10v115h9v-7h10v-14h10v-15h9v-86h10v158h9v7h10v29h10v7h9v-100h10v222h9v-165h10v64h10v65h9v-29h10v79h9v15h10v-22h10v50h9v15h10v14h9v36h10v-58h10v15h9v21h10v50h19v15h10v28h9v-14h10v36h9v-36h10v14h10v8h19v28h9v-14h10v29h10v-8h9v-14h10v14h9v8h10v7h10v7h9v-7h10v7h9v-22h10" style="stroke-linejoin: miter; stroke: #00009a; stroke-width: 1; fill: none;"></path>
    </g>
   </svg>
   <g>
    <g transform="translate(0,640)">
     <path d="M0,0h960M0,-24V0M32,-12V0M64,-12V0M96,-12V0M128,-12V0M160,-24V0M192,-12V0M224,-12V0M256,-12V0M288,-12V0M320,-24V0M352,-12V0M384,-12V0M416,-12V0M448,-12V0M480,-24V0M512,-12V0M544,-12V0M576,-12V0M608,-12V0M640,-24V0M672,-12V0M704,-12V0M736,-12V0M768,-12V0M800,-24V0M832,-12V0M864,-12V0M896,-12V0M928,-12V0M960,-24V0" style="stroke: black; stroke-width: 1;"></path>
     <g font-family="Arial" font-size="28" space="preserve" fill="black" text-anchor="middle">
      <text dy=".8em" transform="translate(0,6)">
       -3
      </text>
      <text dy=".8em" transform="translate(160,6)">
       -2
      </text>
      <text dy=".8em" transform="translate(320,6)">
       -1
      </text>
      <text dy=".8em" transform="translate(480,6)">
       0
      </text>
      <text dy=".8em" transform="translate(640,6)">
       1
      </text>
      <text dy=".8em" transform="translate(800,6)">
       2
      </text>
      <text dy=".8em" transform="translate(960,6)">
       3
      </text>
     </g>
    </g>
    <g>
     <path d="M0,0v640M36,640H0M18,626H0M18,611H0M18,597H0M18,583H0M36,568H0M18,554H0M18,540H0M18,525H0M18,511H0M36,497H0M18,482H0M18,468H0M18,454H0M18,439H0M36,425H0M18,411H0M18,396H0M18,382H0M18,368H0M36,353H0M18,339H0M18,324H0M18,310H0M18,296H0M36,281H0M18,267H0M18,253H0M18,238H0M18,224H0M36,210H0M18,195H0M18,181H0M18,167H0M18,152H0M36,138H0M18,124H0M18,109H0M18,95H0M18,81H0M36,66H0M18,52H0M18,38H0M18,23H0M18,9H0" style="stroke: black; stroke-width: 1;"></path>
     <g font-family="Arial" font-size="28" space="preserve" fill="black" text-anchor="end">
      <text dy=".4em" transform="translate(-4,640)">
       0
      </text>
      <text dy=".4em" transform="translate(-4,568)">
       10
      </text>
      <text dy=".4em" transform="translate(-4,497)">
       20
      </text>
      <text dy=".4em" transform="translate(-4,425)">
       30
      </text>
      <text dy=".4em" transform="translate(-4,353)">
       40
      </text>
      <text dy=".4em" transform="translate(-4,281)">
       50
      </text>
      <text dy=".4em" transform="translate(-4,210)">
       60
      </text>
      <text dy=".4em" transform="translate(-4,138)">
       70
      </text>
      <text dy=".4em" transform="translate(-4,66)">
       80
      </text>
     </g>
    </g>
   </g>
  </g>
  <g transform="translate(551,4)" font-family="Arial" font-size="36" space="preserve">
   <text fill="black" text-anchor="middle" dy=".4em" transform="translate(49,22)">
    test
   </text>
  </g>
 </g>
</svg>
